public/images/svg/book2.svg

<svg xmlns="http://www.w3.org/2000/svg" style="isolation:isolate" viewBox="0 0 512 512"><defs><clipPath id="a"><path d="M0 0h512v512H0z"/></clipPath></defs><g clip-path="url(#a)"><path d="M512 256c0 81.697-38.273 154.456-97.863 201.322-43.535 34.242-98.452 54.672-158.142 54.672-59.679 0-114.596-20.43-158.131-54.672C38.273 410.467 0 337.708 0 256 0 114.612 114.618.006 255.994.006 397.382.006 512 114.612 512 256z" fill="#009688"/><path d="M404.049 412.975l-258.834-.223c-27.828-.024-50.368-22.284-50.344-49.72l.008-9.527c.024-27.436 22.602-49.657 50.429-49.633l258.835.223-.094 108.88z" fill="#FFEBB7"/><path fill="#5C546A" d="M105.913 314.74l27.61.029-.088 87.104-27.609-.028z"/><path d="M377.928 287.741l-294.036-.254.066-76.216 294.036.254c8.386.007 15.179 6.716 15.172 14.984l-.04 46.274c-.007 8.268-6.812 14.965-15.198 14.958zM122.68 113.33l281.612.281-.082 81.66-281.612-.281z" fill="#FFEBB7"/><path d="M404.191 423.863l-254.003-.219c-36.536-.031-66.236-29.361-66.205-65.385.031-36.024 29.781-65.302 66.317-65.271l254.003.219c6.099.006 11.04 4.885 11.034 10.898-.005 6.013-4.954 10.884-11.053 10.878l-254.002-.219c-24.358-.021-44.192 19.5-44.212 43.514-.021 24.014 19.779 43.569 44.137 43.59l254.002.219c6.099.005 11.04 4.885 11.035 10.898-.006 6.013-4.955 10.883-11.053 10.878z" fill="#00C37A"/><path d="M371.172 293.179l-292.655-.252c-3.052-.003-5.52-2.44-5.517-5.449.003-3.009 2.474-5.442 5.526-5.439l292.656.252c9.134.008 16.572-7.312 16.579-16.318l.028-32.664c.008-9.005-7.416-16.338-16.551-16.346l-292.655-.252c-3.052-.003-5.52-2.44-5.517-5.449.002-3.009 2.474-5.442 5.526-5.439l292.656.252c15.222.013 27.598 12.235 27.585 27.244l-.028 32.664c-.013 15.008-12.41 27.209-27.633 27.196z" fill="#009BCA"/><path d="M404.283 140.776l-254.002-.219c-3.05-.003-5.52-2.443-5.517-5.449.002-3.007 2.477-5.442 5.526-5.439l254.003.219-.01 10.888zm-.018 21.775l-254.003-.218c-3.049-.003-5.52-2.443-5.517-5.449.002-3.007 2.477-5.442 5.526-5.439l254.003.219-.009 10.887zm-.019 21.776l-254.003-.218c-3.049-.003-5.52-2.443-5.517-5.449.003-3.007 2.477-5.442 5.527-5.439l254.002.218-.009 10.888zM83.944 227.603l287.134.248c3.049.002 5.519 2.442 5.517 5.449-.003 3.006-2.477 5.441-5.527 5.439l-287.133-.248.009-10.888zm-.019 21.776l287.134.248c3.049.002 5.52 2.442 5.517 5.449-.003 3.006-2.477 5.441-5.527 5.439l-287.133-.248.009-10.888zm-.018 21.776l287.133.248c3.049.002 5.52 2.442 5.517 5.449-.002 3.006-2.477 5.441-5.526 5.439l-287.134-.248.01-10.888z" fill="#E6BE94"/><path d="M409.9 206.108l-265.046-.228c-18.27-.016-33.118-14.681-33.103-32.693l.038-43.552c.015-18.012 14.889-32.651 33.159-32.635l265.046.228c6.099.006 11.039 4.885 11.034 10.898-.005 6.013-4.954 10.884-11.053 10.878l-265.046-.228c-6.091-.005-11.048 4.874-11.053 10.878l-.038 43.552c-.005 6.002 4.944 10.893 11.035 10.898l265.046.228c6.099.006 11.039 4.885 11.034 10.898-.005 6.013-4.954 10.884-11.053 10.878z" fill="#FF4F19"/><path d="M150.065 390.98c-3.052-.002-5.524 2.43-5.527 5.439-.002 3.01 2.465 5.447 5.517 5.449l254.003.219.01-10.888-254.003-.219zm.019-21.776c-3.053-.002-5.524 2.43-5.527 5.439-.002 3.01 2.465 5.447 5.517 5.449l254.003.219.009-10.888-254.002-.219zm.018-21.776c-3.052-.002-5.523 2.43-5.526 5.439-.003 3.01 2.465 5.447 5.517 5.449l254.003.219.009-10.888-254.003-.219zm.019-21.776c-3.052-.002-5.524 2.43-5.526 5.44-.003 3.009 2.465 5.446 5.517 5.448l254.003.219.009-10.888-254.003-.219z" fill="#E6BE94"/></g></svg>

<?xml version="1.0" standalone="no"?><!-- Generator: Gravit.io --><svg xmlns="http://www.w3.org/2000/svg" xmlns:xlink="http://www.w3.org/1999/xlink" style="isolation:isolate" viewBox="0 0 512 512"><defs><clipPath id="_clipPath_hvQD0VHNm8W8b2tNmCdnFqN60A7seeQi"><rect width="512" height="512"/></clipPath></defs><g clip-path="url(#_clipPath_hvQD0VHNm8W8b2tNmCdnFqN60A7seeQi)"><path d=" M 512 256 C 512 337.697 473.727 410.456 414.137 457.322 C 370.602 491.564 315.685 511.994 255.995 511.994 C 196.316 511.994 141.399 491.564 97.864 457.322 C 38.273 410.467 0 337.708 0 256 C 0 114.612 114.618 0.006 255.994 0.006 C 397.382 0.006 512 114.612 512 256 Z " fill="rgb(0,150,136)"/><g id="books"><g id="组"><g id="组"><path d=" M 404.049 412.975 L 145.215 412.752 C 117.387 412.728 94.847 390.468 94.871 363.032 L 94.879 353.505 C 94.903 326.069 117.481 303.848 145.308 303.872 L 404.143 304.095 L 404.049 412.975 Z " fill="rgb(255,235,183)"/></g><g id="组"><rect x="105.919" y="314.738" width="27.609" height="87.104" transform="matrix(1,0.001,-0.001,1,0.309,-0.103)" fill="rgb(92,84,106)"/></g><g id="组"><path d=" M 377.928 287.741 L 83.892 287.487 L 83.958 211.271 L 377.994 211.525 C 386.38 211.532 393.173 218.241 393.166 226.509 L 393.126 272.783 C 393.119 281.051 386.314 287.748 377.928 287.741 Z " fill="rgb(255,235,183)"/></g><g id="组"><rect x="122.66" y="113.434" width="281.612" height="81.66" transform="matrix(1,0.001,-0.001,1,0.133,-0.227)" fill="rgb(255,235,183)"/></g><g id="组"><path d=" M 404.191 423.863 L 150.188 423.644 C 113.652 423.613 83.952 394.283 83.983 358.259 C 84.014 322.235 113.764 292.957 150.3 292.988 L 404.303 293.207 C 410.402 293.213 415.343 298.092 415.337 304.105 C 415.332 310.118 410.383 314.989 404.284 314.983 L 150.282 314.764 C 125.924 314.743 106.09 334.264 106.07 358.278 C 106.049 382.292 125.849 401.847 150.207 401.868 L 404.209 402.087 C 410.308 402.092 415.249 406.972 415.244 412.985 C 415.238 418.998 410.289 423.868 404.191 423.863 Z " fill="rgb(0,195,122)"/></g><g id="组"><g id="组"><path d=" M 371.172 293.179 L 78.517 292.927 C 75.465 292.924 72.997 290.487 73 287.478 C 73.003 284.469 75.474 282.036 78.526 282.039 L 371.182 282.291 C 380.316 282.299 387.754 274.979 387.761 265.973 L 387.789 233.309 C 387.797 224.304 380.373 216.971 371.238 216.963 L 78.583 216.711 C 75.531 216.708 73.063 214.271 73.066 211.262 C 73.068 208.253 75.54 205.82 78.592 205.823 L 371.248 206.075 C 386.47 206.088 398.846 218.31 398.833 233.319 L 398.805 265.983 C 398.792 280.991 386.395 293.192 371.172 293.179 Z " fill="rgb(0,155,202)"/></g></g><g id="组"><path d=" M 404.283 140.776 L 150.281 140.557 C 147.231 140.554 144.761 138.114 144.764 135.108 L 144.764 135.108 C 144.766 132.101 147.241 129.666 150.29 129.669 L 404.293 129.888 L 404.283 140.776 Z " fill="rgb(230,190,148)"/></g><g id="组"><path d=" M 404.265 162.551 L 150.262 162.333 C 147.213 162.33 144.742 159.89 144.745 156.884 L 144.745 156.884 C 144.747 153.877 147.222 151.442 150.271 151.445 L 404.274 151.664 L 404.265 162.551 Z " fill="rgb(230,190,148)"/></g><g id="组"><path d=" M 404.246 184.327 L 150.243 184.109 C 147.194 184.106 144.723 181.666 144.726 178.66 L 144.726 178.66 C 144.729 175.653 147.203 173.218 150.253 173.221 L 404.255 173.439 L 404.246 184.327 Z " fill="rgb(230,190,148)"/></g><g id="组"><path d=" M 83.944 227.603 L 371.078 227.851 C 374.127 227.853 376.597 230.293 376.595 233.3 L 376.595 233.3 C 376.592 236.306 374.118 238.741 371.068 238.739 L 83.935 238.491 C 83.935 238.491 83.944 227.603 83.944 227.603 Z " fill="rgb(230,190,148)"/></g><g id="组"><path d=" M 83.925 249.379 L 371.059 249.627 C 374.108 249.629 376.579 252.069 376.576 255.076 L 376.576 255.076 C 376.573 258.082 374.099 260.517 371.049 260.515 L 83.916 260.267 C 83.916 260.267 83.925 249.379 83.925 249.379 Z " fill="rgb(230,190,148)"/></g><g id="组"><path d=" M 83.907 271.155 L 371.04 271.403 C 374.089 271.405 376.56 273.845 376.557 276.852 L 376.557 276.852 C 376.555 279.858 374.08 282.293 371.031 282.291 L 83.897 282.043 C 83.897 282.043 83.907 271.155 83.907 271.155 Z " fill="rgb(230,190,148)"/></g><g id="组"><path d=" M 409.9 206.108 L 144.854 205.88 C 126.584 205.864 111.736 191.199 111.751 173.187 L 111.789 129.635 C 111.804 111.623 126.678 96.984 144.948 97 L 409.994 97.228 C 416.093 97.234 421.033 102.113 421.028 108.126 C 421.023 114.139 416.074 119.01 409.975 119.004 L 144.929 118.776 C 138.838 118.771 133.881 123.65 133.876 129.654 L 133.838 173.206 C 133.833 179.208 138.782 184.099 144.873 184.104 L 409.919 184.332 C 416.018 184.338 420.958 189.217 420.953 195.23 C 420.948 201.243 415.999 206.114 409.9 206.108 Z " fill="rgb(255,79,25)"/></g><g id="组"><path d=" M 150.065 390.98 C 147.013 390.978 144.541 393.41 144.538 396.419 C 144.536 399.429 147.003 401.866 150.055 401.868 L 404.058 402.087 L 404.068 391.199 L 150.065 390.98 Z " fill="rgb(230,190,148)"/></g><g id="组"><path d=" M 150.084 369.204 C 147.031 369.202 144.56 371.634 144.557 374.643 C 144.555 377.653 147.022 380.09 150.074 380.092 L 404.077 380.311 L 404.086 369.423 L 150.084 369.204 Z " fill="rgb(230,190,148)"/></g><g id="组"><path d=" M 150.102 347.428 C 147.05 347.426 144.579 349.858 144.576 352.867 C 144.573 355.877 147.041 358.314 150.093 358.316 L 404.096 358.535 L 404.105 347.647 L 150.102 347.428 Z " fill="rgb(230,190,148)"/></g><g id="组"><path d=" M 150.121 325.652 C 147.069 325.65 144.597 328.082 144.595 331.092 C 144.592 334.101 147.06 336.538 150.112 336.54 L 404.115 336.759 L 404.124 325.871 L 150.121 325.652 Z " fill="rgb(230,190,148)"/></g></g></g></g></svg>
